file/rma.svg

<svg clip-rule="evenodd" fill-rule="evenodd" stroke-linejoin="round" stroke-miterlimit="1.41421" viewBox="0 0 560 400" xmlns="http://www.w3.org/2000/svg"><g fill="#3ebbe9" fill-rule="nonzero" transform="matrix(6.56531 0 0 6.56531 99.9957 106.434)"><path d="m9.581 8.295c-.695-.118-1.4-.164-2.105-.137-.766.066-1.485.401-2.028.947-.29.289-.548.608-.77.952-.038.052-.067.11-.143.088-.075-.021-.065-.075-.072-.131-.068-.487-.142-.974-.207-1.461-.02-.141-.076-.195-.226-.191h-3.615c-.135 0-.193.012-.209.18-.046.46-.132.92-.197 1.376-.023.166-.009.283.195.361.301.106.604.211.901.308.332.108.412.326.412.633v6.364c.003.068.003.137 0 .205.005.18-.134.331-.314.341-.292.031-.583.083-.875.116-.137.016-.205.057-.202.214.009.476.013.95 0 1.427 0 .191.062.223.235.221h6.959c.1 0 .205.026.201-.144-.009-.51 0-1.019 0-1.529 0-.108-.043-.139-.146-.146-.669-.051-1.336-.107-2.005-.162-.443-.037-.451-.044-.451-.493v-5.66c-.018-.177.063-.349.211-.447.419-.293.841-.57 1.373-.605.077-.012.157.008.219.057.061.05.099.123.103.201.067.361.141.704.201 1.057.018.105.052.133.156.135.792.015 1.584.031 2.375.06.168 0 .208-.049.208-.208v-3.698c.002-.155-.051-.218-.184-.231z"/><path d="m29.994 18.455c0-.098-.036-.128-.13-.139-.299-.034-.595-.088-.902-.114-.402-.034-.461-.088-.465-.479-.02-2.078.038-4.148-.03-6.236-.008-.507-.086-1.01-.233-1.495-.202-.742-.75-1.341-1.472-1.609-.711-.249-1.473-.323-2.219-.214-1.039.134-2.023.542-2.851 1.183-.159.121-.202.065-.276-.052-.228-.354-.55-.637-.931-.816-.654-.297-1.377-.411-2.092-.331-.892.066-1.751.364-2.493.863-.228.148-.439.316-.664.464-.112.074-.18.063-.195-.08-.04-.297-.088-.593-.122-.901-.015-.117-.073-.144-.181-.144h-3.675c-.146 0-.18.065-.191.2 0 .167-.042.335-.063.503-.047.335-.096.671-.141 1.006-.012.09.013.141.119.18.337.107.671.228 1.005.348.333.121.395.229.395.541v6.591c0 .278-.092.39-.361.433s-.541.09-.812.126c-.135.018-.205.062-.202.219v1.424c0 .134.038.181.181.181h5.887c.138 0 .181-.049.181-.181 0-.454-.015-.901 0-1.363 0-.206-.085-.256-.253-.278-.297-.038-.595-.079-.901-.126-.255-.04-.321-.11-.321-.361v-6.053c-.012-.089.028-.177.103-.227.586-.413 1.211-.664 1.949-.601.356.015.671.232.813.559.142.319.211.665.202 1.014.011 1.219 0 2.438 0 3.657v3.759c0 .154.04.199.197.199h4.275c.146 0 .181-.047.181-.181-.009-.447-.018-.901 0-1.341.01-.227-.089-.278-.278-.296-.245-.025-.485-.077-.721-.11-.192-.025-.253-.141-.251-.314v-.64c-.031-1.884.07-3.771-.061-5.653-.006-.056.027-.108.079-.128.591-.35 1.205-.583 1.917-.516.412.024.768.295.901.685.181.437.181.902.181 1.371v6.589c0 .18-.074.391.032.499.107.109.339.038.516.038h4.148c.097 0 .212.036.209-.138.009-.511.012-1.014.016-1.515z"/><path d="m35 20.352c.729-.086 1.434-.319 2.07-.685.33-.21.642-.444.936-.702.15-.119.189-.101.224.092.041.233.082.467.131.698.027.124-.047.361.235.35h3.842c.127 0 .166-.036.165-.164 0-.467-.013-.936 0-1.403 0-.181-.076-.233-.231-.255-.318-.046-.632-.115-.949-.155-.211-.027-.274-.131-.274-.33v-5.743c-.004-.479-.058-.957-.162-1.425-.19-1.045-.96-1.891-1.984-2.178-.786-.252-1.599-.294-2.413-.323-.725-.029-1.451.027-2.164.166-.901.18-1.749.491-2.331 1.262-.412.56-.625 1.242-.604 1.937 0 .088.036.114.12.126.419.06.841.072 1.263.121.541.065 1.082.083 1.634.125.115.009.18 0 .18-.146 0-.125.012-.248.036-.37.085-.563.326-.83.889-.936.4-.073.81-.076 1.212-.009.609.103.862.361.959.966.097.606.031 1.263.045 1.898 0 .119-.083.122-.169.128-.48.03-.961.054-1.443.092-.781.061-1.565.079-2.333.247-.832.18-1.607.458-2.184 1.134-.276.324-.469.709-.565 1.123-.138.644-.153 1.309-.043 1.959.075.606.346 1.172.772 1.61.564.573 1.306.765 2.077.811.353.026.707.019 1.059-.021zm-.44-4.148c.101-.322.359-.57.685-.658.355-.11.722-.174 1.093-.191.438-.04.878-.061 1.316-.097.141-.011.197.027.19.18-.011.254 0 .51 0 .764v.763c.009.097-.039.191-.123.24-.509.379-1.105.627-1.733.721-.307.039-.618-.006-.902-.129-.233-.103-.412-.3-.492-.541-.119-.337-.131-.701-.034-1.045z"/><path d="m54.639 11.916c-.254-1.528-.763-3.002-1.505-4.362-.823-1.517-1.92-2.87-3.234-3.989-2.546-2.184-5.791-3.385-9.146-3.385-.755-.004-1.509.057-2.254.181-1.588.254-3.122.775-4.535 1.543-.747.404-1.059 1.082-.927 1.825.083.546.43 1.015.928 1.254.497.239 1.081.216 1.559-.06 1.558-.861 3.305-1.323 5.085-1.345.612-.005 1.224.044 1.828.146.711.106 1.409.287 2.081.541 1.239.467 2.379 1.161 3.362 2.046.66.585 1.243 1.251 1.734 1.984.752 1.118 1.286 2.368 1.573 3.684.118.516.191 1.041.218 1.569.012.415.012.83 0 1.246-.009.347-.041.693-.097 1.035-.123.812-.336 1.607-.637 2.371-.466 1.17-1.138 2.247-1.983 3.18-.38.423-.794.814-1.239 1.168-.866.691-1.828 1.25-2.857 1.659-1.05.42-2.162.664-3.291.722-.802.042-1.607-.009-2.398-.152-1.141-.198-2.242-.581-3.26-1.132-.328-.192-.703-.29-1.082-.284-.832.017-1.516.659-1.585 1.488-.082.795.281 1.385.981 1.758 1.134.616 2.348 1.074 3.606 1.362.869.205 1.757.32 2.649.342 1.665.069 3.329-.162 4.912-.683 5.574-1.832 9.433-6.92 9.695-12.782.045-.98-.015-1.962-.181-2.93z"/></g></svg>

<?xml version="1.0" encoding="UTF-8" standalone="no"?>
<!DOCTYPE svg PUBLIC "-//W3C//DTD SVG 1.1//EN" "http://www.w3.org/Graphics/SVG/1.1/DTD/svg11.dtd">
<svg width="100%" height="100%" viewBox="0 0 560 400" version="1.1" xmlns="http://www.w3.org/2000/svg" xmlns:xlink="http://www.w3.org/1999/xlink" xml:space="preserve" xmlns:serif="http://www.serif.com/" style="fill-rule:evenodd;clip-rule:evenodd;stroke-linejoin:round;stroke-miterlimit:1.41421;">
    <g transform="matrix(6.56531,0,0,6.56531,99.9957,106.434)">
        <path id="Path" d="M9.581,8.295C8.886,8.177 8.181,8.131 7.476,8.158C6.71,8.224 5.991,8.559 5.448,9.105C5.158,9.394 4.9,9.713 4.678,10.057C4.64,10.109 4.611,10.167 4.535,10.145C4.46,10.124 4.47,10.07 4.463,10.014C4.395,9.527 4.321,9.04 4.256,8.553C4.236,8.412 4.18,8.358 4.03,8.362L0.415,8.362C0.28,8.362 0.222,8.374 0.206,8.542C0.16,9.002 0.074,9.462 0.009,9.918C-0.014,10.084 0,10.201 0.204,10.279C0.505,10.385 0.808,10.49 1.105,10.587C1.437,10.695 1.517,10.913 1.517,11.22L1.517,17.584C1.52,17.652 1.52,17.721 1.517,17.789C1.522,17.969 1.383,18.12 1.203,18.13C0.911,18.161 0.62,18.213 0.328,18.246C0.191,18.262 0.123,18.303 0.126,18.46C0.135,18.936 0.139,19.41 0.126,19.887C0.126,20.078 0.188,20.11 0.361,20.108L7.32,20.108C7.42,20.108 7.525,20.134 7.521,19.964C7.512,19.454 7.521,18.945 7.521,18.435C7.521,18.327 7.478,18.296 7.375,18.289C6.706,18.238 6.039,18.182 5.37,18.127C4.927,18.09 4.919,18.083 4.919,17.634L4.919,11.974C4.901,11.797 4.982,11.625 5.13,11.527C5.549,11.234 5.971,10.957 6.503,10.922C6.58,10.91 6.66,10.93 6.722,10.979C6.783,11.029 6.821,11.102 6.825,11.18C6.892,11.541 6.966,11.884 7.026,12.237C7.044,12.342 7.078,12.37 7.182,12.372C7.974,12.387 8.766,12.403 9.557,12.432C9.725,12.432 9.765,12.383 9.765,12.224L9.765,8.526C9.767,8.371 9.714,8.308 9.581,8.295Z" style="fill:rgb(62,187,233);fill-rule:nonzero;"/>
        <path id="Path1" serif:id="Path" d="M29.994,18.455C29.994,18.357 29.958,18.327 29.864,18.316C29.565,18.282 29.269,18.228 28.962,18.202C28.56,18.168 28.501,18.114 28.497,17.723C28.477,15.645 28.535,13.575 28.467,11.487C28.459,10.98 28.381,10.477 28.234,9.992C28.032,9.25 27.484,8.651 26.762,8.383C26.051,8.134 25.289,8.06 24.543,8.169C23.504,8.303 22.52,8.711 21.692,9.352C21.533,9.473 21.49,9.417 21.416,9.3C21.188,8.946 20.866,8.663 20.485,8.484C19.831,8.187 19.108,8.073 18.393,8.153C17.501,8.219 16.642,8.517 15.9,9.016C15.672,9.164 15.461,9.332 15.236,9.48C15.124,9.554 15.056,9.543 15.041,9.4C15.001,9.103 14.953,8.807 14.919,8.499C14.904,8.382 14.846,8.355 14.738,8.355L11.063,8.355C10.917,8.355 10.883,8.42 10.872,8.555C10.872,8.722 10.83,8.89 10.809,9.058C10.762,9.393 10.713,9.729 10.668,10.064C10.656,10.154 10.681,10.205 10.787,10.244C11.124,10.351 11.458,10.472 11.792,10.592C12.125,10.713 12.187,10.821 12.187,11.133L12.187,17.724C12.187,18.002 12.095,18.114 11.826,18.157C11.557,18.2 11.285,18.247 11.014,18.283C10.879,18.301 10.809,18.345 10.812,18.502L10.812,19.926C10.812,20.06 10.85,20.107 10.993,20.107L16.88,20.107C17.018,20.107 17.061,20.058 17.061,19.926C17.061,19.472 17.046,19.025 17.061,18.563C17.061,18.357 16.976,18.307 16.808,18.285C16.511,18.247 16.213,18.206 15.907,18.159C15.652,18.119 15.586,18.049 15.586,17.798L15.586,11.745C15.574,11.656 15.614,11.568 15.689,11.518C16.275,11.105 16.9,10.854 17.638,10.917C17.994,10.932 18.309,11.149 18.451,11.476C18.593,11.795 18.662,12.141 18.653,12.49C18.664,13.709 18.653,14.928 18.653,16.147L18.653,19.906C18.653,20.06 18.693,20.105 18.85,20.105L23.125,20.105C23.271,20.105 23.306,20.058 23.306,19.924C23.297,19.477 23.288,19.023 23.306,18.583C23.316,18.356 23.217,18.305 23.028,18.287C22.783,18.262 22.543,18.21 22.307,18.177C22.115,18.152 22.054,18.036 22.056,17.863L22.056,17.223C22.025,15.339 22.126,13.452 21.995,11.57C21.989,11.514 22.022,11.462 22.074,11.442C22.665,11.092 23.279,10.859 23.991,10.926C24.403,10.95 24.759,11.221 24.892,11.611C25.073,12.048 25.073,12.513 25.073,12.982L25.073,19.571C25.073,19.751 24.999,19.962 25.105,20.07C25.212,20.179 25.444,20.108 25.621,20.108L29.769,20.108C29.866,20.108 29.981,20.144 29.978,19.97C29.987,19.459 29.99,18.956 29.994,18.455Z" style="fill:rgb(62,187,233);fill-rule:nonzero;"/>
        <path id="Shape" d="M35,20.352C35.729,20.266 36.434,20.033 37.07,19.667C37.4,19.457 37.712,19.223 38.006,18.965C38.156,18.846 38.195,18.864 38.23,19.057C38.271,19.29 38.312,19.524 38.361,19.755C38.388,19.879 38.314,20.116 38.596,20.105L42.438,20.105C42.565,20.105 42.604,20.069 42.603,19.941C42.603,19.474 42.59,19.005 42.603,18.538C42.603,18.357 42.527,18.305 42.372,18.283C42.054,18.237 41.74,18.168 41.423,18.128C41.212,18.101 41.149,17.997 41.149,17.798L41.149,12.055C41.145,11.576 41.091,11.098 40.987,10.63C40.797,9.585 40.027,8.739 39.003,8.452C38.217,8.2 37.404,8.158 36.59,8.129C35.865,8.1 35.139,8.156 34.426,8.295C33.525,8.475 32.677,8.786 32.095,9.557C31.683,10.117 31.47,10.799 31.491,11.494C31.491,11.582 31.527,11.608 31.611,11.62C32.03,11.68 32.452,11.692 32.874,11.741C33.415,11.806 33.956,11.824 34.508,11.866C34.623,11.875 34.688,11.866 34.688,11.72C34.688,11.595 34.7,11.472 34.724,11.35C34.809,10.787 35.05,10.52 35.613,10.414C36.013,10.341 36.423,10.338 36.825,10.405C37.434,10.508 37.687,10.766 37.784,11.371C37.881,11.977 37.815,12.634 37.829,13.269C37.829,13.388 37.746,13.391 37.66,13.397C37.18,13.427 36.699,13.451 36.217,13.489C35.436,13.55 34.652,13.568 33.884,13.736C33.052,13.916 32.277,14.194 31.7,14.87C31.424,15.194 31.231,15.579 31.135,15.993C30.997,16.637 30.982,17.302 31.092,17.952C31.167,18.558 31.438,19.124 31.864,19.562C32.428,20.135 33.17,20.327 33.941,20.373C34.294,20.399 34.648,20.392 35,20.352ZM34.56,16.204C34.661,15.882 34.919,15.634 35.245,15.546C35.6,15.436 35.967,15.372 36.338,15.355C36.776,15.315 37.216,15.294 37.654,15.258C37.795,15.247 37.851,15.285 37.844,15.438C37.833,15.692 37.844,15.948 37.844,16.202L37.844,16.965C37.853,17.062 37.805,17.156 37.721,17.205C37.212,17.584 36.616,17.832 35.988,17.926C35.681,17.965 35.37,17.92 35.086,17.797C34.853,17.694 34.674,17.497 34.594,17.256C34.475,16.919 34.463,16.555 34.56,16.211L34.56,16.204Z" style="fill:rgb(62,187,233);fill-rule:nonzero;"/>
        <path id="Path2" serif:id="Path" d="M54.639,11.916C54.385,10.388 53.876,8.914 53.134,7.554C52.311,6.037 51.214,4.684 49.9,3.565C47.354,1.381 44.109,0.18 40.754,0.18C39.999,0.176 39.245,0.237 38.5,0.361C36.912,0.615 35.378,1.136 33.965,1.904C33.218,2.308 32.906,2.986 33.038,3.729C33.121,4.275 33.468,4.744 33.966,4.983C34.463,5.222 35.047,5.199 35.525,4.923C37.083,4.062 38.83,3.6 40.61,3.578C41.222,3.573 41.834,3.622 42.438,3.724C43.149,3.83 43.847,4.011 44.519,4.265C45.758,4.732 46.898,5.426 47.881,6.311C48.541,6.896 49.124,7.562 49.615,8.295C50.367,9.413 50.901,10.663 51.188,11.979C51.306,12.495 51.379,13.02 51.406,13.548C51.418,13.963 51.418,14.378 51.406,14.794C51.397,15.141 51.365,15.487 51.309,15.829C51.186,16.641 50.973,17.436 50.672,18.2C50.206,19.37 49.534,20.447 48.689,21.38C48.309,21.803 47.895,22.194 47.45,22.548C46.584,23.239 45.622,23.798 44.593,24.207C43.543,24.627 42.431,24.871 41.302,24.929C40.5,24.971 39.695,24.92 38.904,24.777C37.763,24.579 36.662,24.196 35.644,23.645C35.316,23.453 34.941,23.355 34.562,23.361C33.73,23.378 33.046,24.02 32.977,24.849C32.895,25.644 33.258,26.234 33.958,26.607C35.092,27.223 36.306,27.681 37.564,27.969C38.433,28.174 39.321,28.289 40.213,28.311C41.878,28.38 43.542,28.149 45.125,27.628C50.699,25.796 54.558,20.708 54.82,14.846C54.865,13.866 54.805,12.884 54.639,11.916Z" style="fill:rgb(62,187,233);fill-rule:nonzero;"/>
    </g>
</svg>
